src/pos-icons/heart-circle.svg

<svg height="24" viewBox="0 0 24 24" width="24" xmlns="http://www.w3.org/2000/svg"><path d="m12 2c-5.53 0-10 4.5-10 10a10 10 0 0 0 10 10 10 10 0 0 0 10-10 10 10 0 0 0 -10-10m-2.25 5.82c.87 0 1.7.41 2.25 1.05.55-.64 1.38-1.05 2.25-1.05 1.54 0 2.75 1.21 2.75 2.75 0 1.89-1.7 3.43-4.28 5.77l-.72.66-.72-.66c-2.58-2.34-4.28-3.88-4.28-5.77 0-1.54 1.21-2.75 2.75-2.75z"/></svg>

<?xml version="1.0" encoding="UTF-8"?><!DOCTYPE svg PUBLIC "-//W3C//DTD SVG 1.1//EN" "http://www.w3.org/Graphics/SVG/1.1/DTD/svg11.dtd"><svg xmlns="http://www.w3.org/2000/svg" xmlns:xlink="http://www.w3.org/1999/xlink" version="1.1" id="mdi-heart-circle" width="24" height="24" viewBox="0 0 24 24"><path d="M12,2C6.47,2 2,6.5 2,12A10,10 0 0,0 12,22A10,10 0 0,0 22,12A10,10 0 0,0 12,2M9.75,7.82C10.62,7.82 11.45,8.23 12,8.87C12.55,8.23 13.38,7.82 14.25,7.82C15.79,7.82 17,9.03 17,10.57C17,12.46 15.3,14 12.72,16.34L12,17L11.28,16.34C8.7,14 7,12.46 7,10.57C7,9.03 8.21,7.82 9.75,7.82Z" /></svg>
